assets/svg/surround_box_purple.svg

<svg fill="none" height="286" viewBox="0 0 287 286" width="287" xmlns="http://www.w3.org/2000/svg"><path clip-rule="evenodd" d="m205.276 111.621-58.046 33.515v67.055l58.046-33.514zm-61.776-96.453c9.613 0 17.406 7.7932 17.406 17.4057s-7.793 17.4057-17.406 17.4057c-9.612 0-17.406-7.7932-17.406-17.4057s7.794-17.4057 17.406-17.4057zm-95.6336 55.2147c9.6125 0 17.4057 7.7932 17.4057 17.4057 0 9.6124-7.7932 17.4056-17.4057 17.4056-9.6124 0-17.4057-7.7932-17.4057-17.4056 0-9.6125 7.7933-17.4057 17.4057-17.4057zm0 110.4273c9.6125 0 17.4057 7.793 17.4057 17.405 0 9.613-7.7932 17.406-17.4057 17.406-9.6124 0-17.4057-7.793-17.4057-17.406 0-9.612 7.7933-17.405 17.4057-17.405zm95.6336 55.212c9.613 0 17.406 7.793 17.406 17.406 0 9.612-7.793 17.405-17.406 17.405-9.612 0-17.406-7.793-17.406-17.405 0-9.613 7.794-17.406 17.406-17.406zm95.634-55.212c9.612 0 17.405 7.793 17.405 17.405 0 9.613-7.793 17.406-17.405 17.406-9.613 0-17.406-7.793-17.406-17.406 0-9.612 7.793-17.405 17.406-17.405zm0-110.4273c9.612 0 17.405 7.7932 17.405 17.4057 0 9.6124-7.793 17.4056-17.405 17.4056-9.613 0-17.406-7.7932-17.406-17.4056 0-9.6125 7.793-17.4057 17.406-17.4057zm-72.485-28.7287 53.051 30.6282c-1.542 1.928-2.803 4.0898-3.718 6.4266l-53.051-30.6306c1.542-1.928 2.803-4.0898 3.718-6.4266zm76.212 70.716v61.261c-1.216-.183-2.462-.277-3.729-.277s-2.511.094-3.73.277v-61.261c1.216.183 2.463.277 3.73.277s2.511-.094 3.729-.277zm-23.16 101.349-53.051 30.628c-.918-2.337-2.176-4.496-3.718-6.427l53.05-30.63c.918 2.334 2.177 4.498 3.719 6.426zm-99.352 30.628-53.0503-30.628c1.5417-1.928 2.8033-4.09 3.7185-6.427l53.0508 30.631c-1.542 1.928-2.803 4.089-3.719 6.426zm-76.2115-70.716v-61.261c1.2158.183 2.4624.277 3.7294.277s2.5108-.094 3.7294-.277v61.261c-1.2159-.183-2.4624-.277-3.7294-.277s-2.5109.094-3.7294.277zm23.1602-101.3488 53.0503-30.6282c.918 2.3367 2.177 4.4956 3.719 6.4266l-53.0508 30.6306c-.918-2.334-2.1766-4.4985-3.7185-6.4266zm99.6113 12.8933 11.243 6.4918-58.072 33.5287-11.243-6.492zm-61.776 39.9635v19.788l11.226 6.481v-19.788zm80.459-29.1741 15.979 9.2261-58.073 33.529-15.978-9.226zm-61.776 39.9641v21.93h-.008c0 .635-.16 1.276-.501 1.865-1.03 1.779-3.306 2.385-5.082 1.355l-18.4469-10.65c-1.2438-.604-2.1022-1.879-2.1022-3.355v-26.233l-15.9535-9.209v67.055l58.0456 33.514v-67.055l-15.953-9.212zm-22.419-21.516-15.9702-9.221 58.0722-33.5288 15.97 9.2207z" fill="#7200a6" fill-rule="evenodd"/></svg>

<svg width="287" height="286" viewBox="0 0 287 286" fill="none" xmlns="http://www.w3.org/2000/svg">
<path fill-rule="evenodd" clip-rule="evenodd" d="M205.276 111.621L147.23 145.136V212.191L205.276 178.677V111.621ZM143.5 15.168C153.113 15.168 160.906 22.9612 160.906 32.5737C160.906 42.1862 153.113 49.9794 143.5 49.9794C133.888 49.9794 126.094 42.1862 126.094 32.5737C126.094 22.9612 133.888 15.168 143.5 15.168ZM47.8664 70.3827C57.4789 70.3827 65.2721 78.1759 65.2721 87.7884C65.2721 97.4008 57.4789 105.194 47.8664 105.194C38.254 105.194 30.4607 97.4008 30.4607 87.7884C30.4607 78.1759 38.254 70.3827 47.8664 70.3827ZM47.8664 180.81C57.4789 180.81 65.2721 188.603 65.2721 198.215C65.2721 207.828 57.4789 215.621 47.8664 215.621C38.254 215.621 30.4607 207.828 30.4607 198.215C30.4607 188.603 38.254 180.81 47.8664 180.81ZM143.5 236.022C153.113 236.022 160.906 243.815 160.906 253.428C160.906 263.04 153.113 270.833 143.5 270.833C133.888 270.833 126.094 263.04 126.094 253.428C126.094 243.815 133.888 236.022 143.5 236.022ZM239.134 180.81C248.746 180.81 256.539 188.603 256.539 198.215C256.539 207.828 248.746 215.621 239.134 215.621C229.521 215.621 221.728 207.828 221.728 198.215C221.728 188.603 229.521 180.81 239.134 180.81ZM239.134 70.3827C248.746 70.3827 256.539 78.1759 256.539 87.7884C256.539 97.4008 248.746 105.194 239.134 105.194C229.521 105.194 221.728 97.4008 221.728 87.7884C221.728 78.1759 229.521 70.3827 239.134 70.3827ZM166.649 41.654L219.7 72.2822C218.158 74.2102 216.897 76.372 215.982 78.7088L162.931 48.0782C164.473 46.1502 165.734 43.9884 166.649 41.6516V41.654ZM242.861 112.37V173.631C241.645 173.448 240.399 173.354 239.132 173.354C237.865 173.354 236.621 173.448 235.402 173.631V112.37C236.618 112.553 237.865 112.647 239.132 112.647C240.399 112.647 241.643 112.553 242.861 112.37ZM219.701 213.719L166.65 244.347C165.732 242.01 164.474 239.851 162.932 237.92L215.982 207.29C216.9 209.624 218.159 211.788 219.701 213.716V213.719ZM120.349 244.347L67.2987 213.719C68.8404 211.791 70.102 209.629 71.0172 207.292L124.068 237.923C122.526 239.851 121.265 242.012 120.349 244.349V244.347ZM44.1375 173.631V112.37C45.3533 112.553 46.5999 112.647 47.8669 112.647C49.1339 112.647 50.3777 112.553 51.5963 112.37V173.631C50.3804 173.448 49.1339 173.354 47.8669 173.354C46.5999 173.354 45.356 173.448 44.1375 173.631ZM67.2977 72.2822L120.348 41.654C121.266 43.9907 122.525 46.1496 124.067 48.0806L71.0162 78.7112C70.0982 76.3772 68.8396 74.2127 67.2977 72.2846V72.2822ZM166.909 85.1755L178.152 91.6673L120.08 125.196L108.837 118.704L166.909 85.1755ZM105.133 125.139V144.927L116.359 151.408V131.62L105.133 125.139ZM185.592 95.9649L201.571 105.191L143.498 138.72L127.52 129.494L185.592 95.9649ZM123.816 135.929V157.859H123.808C123.808 158.494 123.648 159.135 123.307 159.724C122.277 161.503 120.001 162.109 118.225 161.079L99.7781 150.429C98.5343 149.825 97.6759 148.55 97.6759 147.074V120.841L81.7224 111.632V178.687L139.768 212.201V145.146L123.815 135.934L123.816 135.929ZM101.397 114.413L85.4268 105.192L143.499 71.6632L159.469 80.8839L101.397 114.413Z" fill="#7200A6"/>
</svg>
